!!!OTL: Die Mordeltern Es war einmal ein Gastwirtssohn,
!!!ARE: Europa, Mitteleuropa, Deutschland (BRD), Hessen, Kurhessen
!!!YOR: 4, S. 310
!!    ????
!!!SCT: Q0085a
!!!YEM: Copyright 1995, estate of Helmut Schaffrath.
**kern
*ICvox
*Ivox
!! Mixed meters:  3/4; 2/4
*M3/4
*k[f#]
*G:
{4d
=1
8g
8d
4.B
8d
=2
8g
8d
4.B}
{8g
=3
8f#
8g
4a
4g
=4
8f#
8e
4.d}
{8d
=5
8d
8a
4.a
8d
=6
8g
8b
4.b}
{8d
=7
8d
8cc
8b
8a
8b
8a
=8
*M2/4
4g
4f#
=9
2g}
==
!!!AGN: Ballade, Habgier, Mord, Reue, Selbstmord
!!!ONB: ESAC (Essen Associative Code) Database: BALLADE
!!!AMT: irregular
!!!AIN: vox
!!!EED: Helmut Schaffrath
!!!EEV: 1.0
*-
